X: 13
T: O Mio Babbino Caro    [A]
O: from "Gianni Schicchi"
C: Giacomo Puccini
S: Gary Dahl "Italian Songa & Arias for Accordion" pub. Mel Bay 2003 p.12
S: https://www.music-for-music-teachers.com/o-mio-babbino.html
Z: 2018 John Chambers <jc:trillian.mit.edu>
M: 6/8
L: 1/8
K: A
%%continueall 1
E [| "A"AAA c2G | "(D)"F3 "A"E3 | "A"ABc A2a | e3- e2c ||
"E"e2B "Bm"d2c | "Fm"A3 A3 | ABc "B7"A2G | "E"B3- B2 E ||
"A"A3 cAG | "(D)"F3 "A"E3 | ABc A2a | e3- e2f ||
"D"a2f "E"e2d | "Cm"e3 "Fm"c3 | "D"ABc "Bm"A2F | "Fm"A3- A2 |]
f | "D"a2f "E7"e2d | "A"a2e "D"d2c | "Bm"f6- | "D"f2d "E"c2B |] "A"A3 z3 |
 "A"AAA c2G | "(D)"F3 "A"E3 | ABc A2a | e3- e3 | "D"ABc "Bm7"A2F | "A"A3 z2 |]


